site/img/logo-nova-poshta.svg

<svg height="46" width="249" xmlns="http://www.w3.org/2000/svg" viewBox="0 0 249 46"><path fill="#fff" fill-rule="evenodd" d="M70.59 15.59v5.73h-7.66v-5.73c0-1.47-.74-2.18-2.26-2.18h-3.87v3.71h1.57c.15 0 .19.03.19.18v15.56h4.37v-7.83h7.66v7.83h4.37v-15.56c0-.15.03-.18.18-.18h1.58v-3.71h-3.88c-1.5 0-2.25.73-2.25 2.18M87.84 13.09c-5.8 0-10.35 4.36-10.35 9.91 0 5.71 4.55 10.17 10.35 10.17 5.81 0 10.35-4.46 10.35-10.17 0-5.55-4.54-9.91-10.35-9.91zm0 16.08c-3.28 0-5.85-2.71-5.85-6.17 0-3.31 2.57-5.9 5.85-5.9s5.85 2.59 5.85 5.9c0 3.46-2.57 6.17-5.85 6.17zm0 0M112.4 22.56c1-.75 1.9-2.08 1.9-3.94 0-3.17-2.51-5.21-6.38-5.21h-8.97v3.71h1.76v13.55c0 1.47.74 2.19 2.26 2.19h5.06c4.27 0 7.02-2.28 7.02-5.81 0-2.02-1.02-3.71-2.65-4.49zm-7.37 2h3.3c1.42 0 2.3.87 2.3 2.28 0 1.44-.86 2.31-2.3 2.31h-3.11c-.16 0-.19-.04-.19-.18v-4.41zm2.98-3.53h-2.98v-3.91h2.92c1.26 0 1.97.7 1.97 1.92 0 1.21-.75 1.99-1.91 1.99zm0 0M133.31 28.83l-5.79-15.42h-4.28l-5.82 15.43c-.11.31-.14.31-.42.31h-.88v3.71h2.55c1.53 0 2.18-.44 2.64-1.79l1.12-2.99h5.9l1.12 2.98c.46 1.36 1.11 1.8 2.63 1.8h2.53v-3.71h-.85c-.28 0-.32 0-.45-.32zm-7.94-9.91c.14.47.28.97.42 1.37l1.47 4.15h-3.73l1.44-4.15c.14-.4.28-.9.4-1.37zm0 0M162.11 28.97v-13.38c0-1.47-.74-2.18-2.26-2.18h-15.6v3.71h1.76v15.74h4.37v-15.74h7.17c.15 0 .19.03.19.18v13.37c0 1.5.71 2.19 2.25 2.19h3.88v-3.71h-1.58c-.15 0-.18-.04-.18-.18M174.99 13.09c-5.8 0-10.35 4.36-10.35 9.91 0 5.71 4.55 10.17 10.35 10.17 5.81 0 10.35-4.46 10.35-10.17 0-5.55-4.54-9.91-10.35-9.91zm0 16.08c-3.28 0-5.85-2.71-5.85-6.17 0-3.31 2.57-5.9 5.85-5.9s5.85 2.59 5.85 5.9c0 3.46-2.57 6.17-5.85 6.17zm0 0M207.21 15.59v13.38c0 .14-.03.18-.19.18h-5.11v-15.74h-4.37v15.74h-5.12c-.15 0-.18-.04-.18-.18v-13.38c0-1.47-.73-2.18-2.23-2.18h-3.91v3.71h1.58c.15 0 .18.03.18.18v13.37c0 1.47.74 2.19 2.26 2.19h19.21c1.53 0 2.25-.69 2.25-2.19v-13.37c0-.15.03-.18.18-.18h1.58v-3.71h-3.91c-1.49 0-2.22.71-2.22 2.18M232.3 18.83v-3.34c0-1.46-.64-2.08-2.14-2.08h-13.44c-1.48 0-2.12.62-2.12 2.08v3.34h3.94v-1.53c0-.16.02-.18.19-.18h2.54v15.74h4.37v-15.74h2.51c.17 0 .19.02.19.18v1.53h3.96M248.15 29.15c-.29 0-.33 0-.46-.32l-5.79-15.42h-4.28l-5.82 15.43c-.11.31-.14.31-.42.31h-.88v3.71h2.56c1.52 0 2.17-.44 2.63-1.79l1.12-2.99h5.9l1.12 2.98c.46 1.36 1.11 1.8 2.64 1.8h2.52v-3.71h-.84zm-8.4-10.23c.14.47.28.97.42 1.37l1.47 4.15h-3.73l1.44-4.15c.14-.4.28-.9.4-1.37zm0 0M37.01 31.65c0 .62.36.77.81.33l8.32-8.19c.44-.44.44-1.16 0-1.6l-8.32-8.18c-.45-.44-.81-.3-.81.33v17.31M17.91 9.75c.63 0 1.14.51 1.14 1.13v6.28c0 .63.52 1.14 1.15 1.14h6.3c.64 0 1.15-.51 1.15-1.14v-6.28c0-.62.52-1.13 1.15-1.13h3.55c.63 0 .78-.36.34-.8l-8.62-8.49c-.45-.44-1.18-.44-1.63 0l-8.62 8.49c-.45.44-.3.8.33.8h3.76M9.7 14.14c0-.62-.37-.77-.81-.33l-8.52 8.38c-.45.44-.45 1.16 0 1.6l8.52 8.39c.44.44.81.29.81-.33v-17.71M28.8 36.43c-.63 0-1.15-.51-1.15-1.13v-6.66c0-.63-.51-1.14-1.15-1.14h-6.3c-.63 0-1.15.51-1.15 1.14v6.66c0 .62-.51 1.13-1.14 1.13h-3.56c-.63 0-.78.36-.33.8l8.42 8.29c.45.44 1.18.44 1.62 0l8.43-8.29c.44-.44.29-.8-.34-.8h-3.35"/></svg>

<?xml version="1.0" encoding="utf-8"?>
<!-- Generator: Avocode 2.4.3-3630f5a - http://avocode.com -->
<svg height="46" width="249" xmlns:xlink="http://www.w3.org/1999/xlink" xmlns="http://www.w3.org/2000/svg" viewBox="0 0 249 46">
    <path fill="#ffffff" fill-rule="evenodd" d="M 70.59 15.59 L 70.59 21.32 L 62.93 21.32 L 62.93 15.59 C 62.93 14.12 62.19 13.41 60.67 13.41 L 56.8 13.41 L 56.8 17.12 L 58.37 17.12 C 58.52 17.12 58.56 17.15 58.56 17.3 L 58.56 32.86 L 62.93 32.86 L 62.93 25.03 L 70.59 25.03 L 70.59 32.86 L 74.96 32.86 L 74.96 17.3 C 74.96 17.15 74.99 17.12 75.14 17.12 L 76.72 17.12 L 76.72 13.41 L 72.84 13.41 C 71.34 13.41 70.59 14.14 70.59 15.59" />
    <path fill="#ffffff" fill-rule="evenodd" d="M 87.84 13.09 C 82.04 13.09 77.49 17.45 77.49 23 C 77.49 28.71 82.04 33.17 87.84 33.17 C 93.65 33.17 98.19 28.71 98.19 23 C 98.19 17.45 93.65 13.09 87.84 13.09 L 87.84 13.09 Z M 87.84 29.17 C 84.56 29.17 81.99 26.46 81.99 23 C 81.99 19.69 84.56 17.1 87.84 17.1 C 91.12 17.1 93.69 19.69 93.69 23 C 93.69 26.46 91.12 29.17 87.84 29.17 L 87.84 29.17 Z M 87.84 29.17" />
    <path fill="#ffffff" fill-rule="evenodd" d="M 112.4 22.56 C 113.4 21.81 114.3 20.48 114.3 18.62 C 114.3 15.45 111.79 13.41 107.92 13.41 L 98.95 13.41 L 98.95 17.12 L 100.71 17.12 L 100.71 30.67 C 100.71 32.14 101.45 32.86 102.97 32.86 L 108.03 32.86 C 112.3 32.86 115.05 30.58 115.05 27.05 C 115.05 25.03 114.03 23.34 112.4 22.56 L 112.4 22.56 Z M 105.03 24.56 L 108.33 24.56 C 109.75 24.56 110.63 25.43 110.63 26.84 C 110.63 28.28 109.77 29.15 108.33 29.15 L 105.22 29.15 C 105.06 29.15 105.03 29.11 105.03 28.97 L 105.03 24.56 L 105.03 24.56 Z M 108.01 21.03 L 105.03 21.03 L 105.03 17.12 L 107.95 17.12 C 109.21 17.12 109.92 17.82 109.92 19.04 C 109.92 20.25 109.17 21.03 108.01 21.03 L 108.01 21.03 Z M 108.01 21.03" />
    <path fill="#ffffff" fill-rule="evenodd" d="M 133.31 28.83 L 127.52 13.41 L 123.24 13.41 L 117.42 28.84 C 117.31 29.15 117.28 29.15 117 29.15 L 116.12 29.15 L 116.12 32.86 L 118.67 32.86 C 120.2 32.86 120.85 32.42 121.31 31.07 L 122.43 28.08 L 128.33 28.08 L 129.45 31.06 C 129.91 32.42 130.56 32.86 132.08 32.86 L 134.61 32.86 L 134.61 29.15 L 133.76 29.15 C 133.48 29.15 133.44 29.15 133.31 28.83 L 133.31 28.83 Z M 125.37 18.92 C 125.51 19.39 125.65 19.89 125.79 20.29 L 127.26 24.44 L 123.53 24.44 L 124.97 20.29 C 125.11 19.89 125.25 19.39 125.37 18.92 L 125.37 18.92 Z M 125.37 18.92" />
    <path fill="#ffffff" fill-rule="evenodd" d="M 162.11 28.97 L 162.11 15.59 C 162.11 14.12 161.37 13.41 159.85 13.41 L 144.25 13.41 L 144.25 17.12 L 146.01 17.12 L 146.01 32.86 L 150.38 32.86 L 150.38 17.12 L 157.55 17.12 C 157.7 17.12 157.74 17.15 157.74 17.3 L 157.74 30.67 C 157.74 32.17 158.45 32.86 159.99 32.86 L 163.87 32.86 L 163.87 29.15 L 162.29 29.15 C 162.14 29.15 162.11 29.11 162.11 28.97" />
    <path fill="#ffffff" fill-rule="evenodd" d="M 174.99 13.09 C 169.19 13.09 164.64 17.45 164.64 23 C 164.64 28.71 169.19 33.17 174.99 33.17 C 180.8 33.17 185.34 28.71 185.34 23 C 185.34 17.45 180.8 13.09 174.99 13.09 L 174.99 13.09 Z M 174.99 29.17 C 171.71 29.17 169.14 26.46 169.14 23 C 169.14 19.69 171.71 17.1 174.99 17.1 C 178.27 17.1 180.84 19.69 180.84 23 C 180.84 26.46 178.27 29.17 174.99 29.17 L 174.99 29.17 Z M 174.99 29.17" />
    <path fill="#ffffff" fill-rule="evenodd" d="M 207.21 15.59 L 207.21 28.97 C 207.21 29.11 207.18 29.15 207.02 29.15 L 201.91 29.15 L 201.91 13.41 L 197.54 13.41 L 197.54 29.15 L 192.42 29.15 C 192.27 29.15 192.24 29.11 192.24 28.97 L 192.24 15.59 C 192.24 14.12 191.51 13.41 190.01 13.41 L 186.1 13.41 L 186.1 17.12 L 187.68 17.12 C 187.83 17.12 187.86 17.15 187.86 17.3 L 187.86 30.67 C 187.86 32.14 188.6 32.86 190.12 32.86 L 209.33 32.86 C 210.86 32.86 211.58 32.17 211.58 30.67 L 211.58 17.3 C 211.58 17.15 211.61 17.12 211.76 17.12 L 213.34 17.12 L 213.34 13.41 L 209.43 13.41 C 207.94 13.41 207.21 14.12 207.21 15.59" />
    <path fill="#ffffff" fill-rule="evenodd" d="M 232.3 18.83 L 232.3 15.49 C 232.3 14.03 231.66 13.41 230.16 13.41 L 216.72 13.41 C 215.24 13.41 214.6 14.03 214.6 15.49 L 214.6 18.83 L 218.54 18.83 L 218.54 17.3 C 218.54 17.14 218.56 17.12 218.73 17.12 L 221.27 17.12 L 221.27 32.86 L 225.64 32.86 L 225.64 17.12 L 228.15 17.12 C 228.32 17.12 228.34 17.14 228.34 17.3 L 228.34 18.83 L 232.3 18.83" />
    <path fill="#ffffff" fill-rule="evenodd" d="M 248.15 29.15 C 247.86 29.15 247.82 29.15 247.69 28.83 L 241.9 13.41 L 237.62 13.41 L 231.8 28.84 C 231.69 29.15 231.66 29.15 231.38 29.15 L 230.5 29.15 L 230.5 32.86 L 233.06 32.86 C 234.58 32.86 235.23 32.42 235.69 31.07 L 236.81 28.08 L 242.71 28.08 L 243.83 31.06 C 244.29 32.42 244.94 32.86 246.47 32.86 L 248.99 32.86 L 248.99 29.15 L 248.15 29.15 L 248.15 29.15 Z M 239.75 18.92 C 239.89 19.39 240.03 19.89 240.17 20.29 L 241.64 24.44 L 237.91 24.44 L 239.35 20.29 C 239.49 19.89 239.63 19.39 239.75 18.92 L 239.75 18.92 Z M 239.75 18.92" />
    <path fill="#ffffff" fill-rule="evenodd" d="M 37.01 31.65 C 37.01 32.27 37.37 32.42 37.82 31.98 L 46.14 23.79 C 46.58 23.35 46.58 22.63 46.14 22.19 L 37.82 14.01 C 37.37 13.57 37.01 13.71 37.01 14.34 L 37.01 31.65" />
    <path fill="#ffffff" fill-rule="evenodd" d="M 17.91 9.75 C 18.54 9.75 19.05 10.26 19.05 10.88 L 19.05 17.16 C 19.05 17.79 19.57 18.3 20.2 18.3 L 26.5 18.3 C 27.14 18.3 27.65 17.79 27.65 17.16 L 27.65 10.88 C 27.65 10.26 28.17 9.75 28.8 9.75 L 32.35 9.75 C 32.98 9.75 33.13 9.39 32.69 8.95 L 24.07 0.46 C 23.62 0.02 22.89 0.02 22.44 0.46 L 13.82 8.95 C 13.37 9.39 13.52 9.75 14.15 9.75 L 17.91 9.75" />
    <path fill="#ffffff" fill-rule="evenodd" d="M 9.7 14.14 C 9.7 13.52 9.33 13.37 8.89 13.81 L 0.37 22.19 C -0.08 22.63 -0.08 23.35 0.37 23.79 L 8.89 32.18 C 9.33 32.62 9.7 32.47 9.7 31.85 L 9.7 14.14" />
    <path fill="#ffffff" fill-rule="evenodd" d="M 28.8 36.43 C 28.17 36.43 27.65 35.92 27.65 35.3 L 27.65 28.64 C 27.65 28.01 27.14 27.5 26.5 27.5 L 20.2 27.5 C 19.57 27.5 19.05 28.01 19.05 28.64 L 19.05 35.3 C 19.05 35.92 18.54 36.43 17.91 36.43 L 14.35 36.43 C 13.72 36.43 13.57 36.79 14.02 37.23 L 22.44 45.52 C 22.89 45.96 23.62 45.96 24.06 45.52 L 32.49 37.23 C 32.93 36.79 32.78 36.43 32.15 36.43 L 28.8 36.43" />
</svg>
